icons/op-logo-nextcloud-16.svg

<svg width="16" height="16" viewBox="0 0 16 16" fill="none" xmlns="http://www.w3.org/2000/svg">
<path d="M8.01219 4C6.35375 4 4.94807 5.12432 4.51241 6.64764C4.13377 5.83965 3.31325 5.27358 2.36815 5.27358C1.06842 5.27358 0 6.342 0 7.64173C0 8.94146 1.06842 10.0104 2.36815 10.0104C3.31325 10.0104 4.13377 9.44395 4.51241 8.63582C4.94807 10.1593 6.35375 11.2839 8.01219 11.2839C9.65838 11.2839 11.0569 10.1762 11.5037 8.66996C11.8893 9.45975 12.6997 10.0104 13.6314 10.0104C14.9311 10.0104 16 8.94146 16 7.64173C16 6.342 14.9311 5.27358 13.6314 5.27358C12.6997 5.27358 11.8893 5.82385 11.5037 6.6135C11.0569 5.10736 9.65838 4 8.01219 4ZM8.01219 5.39016C9.26414 5.39016 10.2643 6.38979 10.2643 7.64173C10.2643 8.89367 9.26414 9.89379 8.01219 9.89379C6.76026 9.89379 5.76063 8.89367 5.76063 7.64173C5.76063 6.38979 6.76026 5.39016 8.01219 5.39016ZM2.36815 6.66374C2.91665 6.66374 3.34663 7.09323 3.34663 7.64173C3.34663 8.19023 2.91665 8.62021 2.36815 8.62021C1.81965 8.62021 1.39016 8.19023 1.39016 7.64173C1.39016 7.09323 1.81965 6.66374 2.36815 6.66374ZM13.6314 6.66374C14.1799 6.66374 14.6098 7.09323 14.6098 7.64173C14.6098 8.19023 14.1799 8.62021 13.6314 8.62021C13.0829 8.62021 12.6534 8.19023 12.6534 7.64173C12.6534 7.09323 13.0829 6.66374 13.6314 6.66374Z" fill="#1F2328"/>
</svg>

<svg xmlns="http://www.w3.org/2000/svg" width="16" height="16" viewBox="0 0 16 16"><path d="M8.012 4a3.654 3.654 0 0 0-3.5 2.648 2.376 2.376 0 0 0-2.144-1.374A2.378 2.378 0 0 0 0 7.642a2.379 2.379 0 0 0 2.368 2.368c.945 0 1.766-.566 2.144-1.374a3.655 3.655 0 0 0 3.5 2.648 3.657 3.657 0 0 0 3.492-2.614 2.375 2.375 0 0 0 2.127 1.34A2.38 2.38 0 0 0 16 7.642c0-1.3-1.069-2.368-2.369-2.368-.931 0-1.742.55-2.127 1.34A3.655 3.655 0 0 0 8.012 4Zm0 1.39c1.252 0 2.252 1 2.252 2.252 0 1.252-1 2.252-2.252 2.252a2.24 2.24 0 0 1-2.251-2.252A2.24 2.24 0 0 1 8.012 5.39ZM2.368 6.664c.549 0 .979.429.979.978 0 .548-.43.978-.979.978a.968.968 0 0 1-.978-.978c0-.549.43-.978.978-.978Zm11.263 0c.549 0 .979.429.979.978 0 .548-.43.978-.979.978a.968.968 0 0 1-.978-.978c0-.549.43-.978.978-.978Z"/></svg>
